!!!COM: Corelli, Arcangelo
!!!OTL: Sonate a tre [in g]
!!!XEN: Trio Sonata Opus 1, No. 10
!!!OPS: Opus 1
!!!ONM: No. 10
!!!OMV: Movement 3.
!!!YEC: Copyright 1994, Center for Computer Assisted Research in the Humanities
!!!YEM: Rights to all derivative electronic formats reserved.
!!!YEM: Refer to licensing agreement for further details.
!! For the following instrumentation: Violino I & II, Violone/Archlute,
!!    and Organo.
!! Allegro.
**kern	**kern	**kern	**kern
*ICklav	*ICstr	*ICstr	*ICstr
*Iorgan	*Icello	*Ivioln	*Ivioln
*	*Iarchl	*	*
!Organo	!Violone	!Violin 2	!Violin 1
!	! or	!	!
!	!Archlute	!	!
*>[A,A]	*>[A,A]	*>[A,A]	*>[A,A]
*>A	*>A	*>A	*>A
*clefF4	*clefF4	*clefG2	*clefG2
*k[b-]	*k[b-]	*k[b-]	*k[b-]
*g:	*g:	*g:	*g:
*M6/8	*M6/8	*M6/8	*M6/8
*MM66	*MM66	*MM66	*MM66
=1-	=1-	=1-	=1-
4GG/	2.r	2.r	4g/
8G\	.	.	8b-\
4G\	.	.	8a\L
.	.	.	16b-\L
.	.	.	16cc\J
8F\	.	.	8dd\J
=2	=2	=2	=2
4E-\	2.r	2.r	8g/
.	.	.	[4gg\
8C/	.	.	.
4D\	.	.	8gg\]
.	.	.	4ff#\
8DD/	.	.	.
=3	=3	=3	=3
4GG/	2.r	4.r	8gg\L
.	.	.	16bb-\L
.	.	.	16aa\
8G\	.	.	16bb-\
.	.	.	16gg\JJ
4F\	.	4dd\	8aa\L
.	.	.	8a\
8D\	.	8ff\	8dd\J
=4	=4	=4	=4
4A\	2.r	8ee\L	4dd\
.	.	16ff\L	.
.	.	16gg\J	.
8AA/	.	8aa\J	8cc#\
4BB-/	.	8dd\	8dd\L
.	.	[4ddd\	16ff\L
.	.	.	16ee\
8D\	.	.	16ff\
.	.	.	16dd\JJ
=5	=5	=5	=5
8AA/	2.r	8ddd\]	8ee\L
4AA/	.	4ccc#\	16aa\L
.	.	.	16gg\
.	.	.	16aa\
.	.	.	16ee\JJ
4D\	.	8ddd\L	4ff\
.	.	16ddd\L	.
.	.	16cccn\	.
8BB-/	.	16ddd\	8dd\
.	.	16bb-\JJ	.
=6	=6	=6	=6
4AA/	4.r	8ccc\L	4ee\
.	.	16ccc\L	.
.	.	16bb-\	.
8AA/	.	16ccc\	8ff#\
.	.	16aa\JJ	.
4GG/	4GG/	4bb-\	8gg\L
.	.	.	8dd\
8BB-/	8BB-/	8dd\	8gg\J
=7	=7	=7	=7
8AA/L	8AA/L	8cc\L	4gg\
(16BB-/L	(16BB-/L	8b-\	.
16C/J)	16C/J)	.	.
8D/J	8D/J	8a\J	8ff#\
8GG/	8GG/	8g/L	4gg\
[4G\	[4G\	16b-/L	.
.	.	16a/	.
.	.	16b-/	8r
.	.	16g/JJ	.
=8	=8	=8	=8
8G\]	8G\]	8a\L	4.r
4F#\	4F#\	16dd\L	.
.	.	16cc\	.
.	.	16dd\	.
.	.	16a\JJ	.
8G\	8G\	8b-\	8r
4D\	4D\	[4dd\	16ff\LL
.	.	.	16ee\
.	.	.	16ff\
.	.	.	16dd\JJ
=9	=9	=9	=9
8A\	8A\	8dd\]	8ee\L
4AA/	4AA/	4cc#\	16aa\L
.	.	.	16gg\
.	.	.	16aa\
.	.	.	16ee\JJ
8D\	8D\L	4dd\	8ff#\
4GG/	16B-\L	.	[4gg\
.	16A\	.	.
.	16B-\	8r	.
.	16G\JJ	.	.
=10	=10	=10	=10
8D\	8A\L	4.r	8gg\]
4DD/	16d\L	.	4ff#\
.	16c\	.	.
.	16d\	.	.
.	16A\JJ	.	.
8GG/L	8B-\	8r	4gg\
*clefG2	*	*	*
8g/	8r	8g/L	.
8b-/J	8r	8b-/J	8r
=11	=11	=11	=11
8a/L	2.r	8a\L	8r
8d/	.	16b-\L	8d/L
.	.	16cc\J	.
8f/J	.	8dd\J	8f/J
8e/L	.	8g/	8e/L
16f#/L	.	[4cc\	16f#/L
16g/J	.	.	16g/J
8a/J	.	.	8a/J
=12	=12	=12	=12
8d/L	8r	8cc\L]	8d/L
*clefF4	*	*	*
8GG/	8GG/L	8b-\	8g/
8BB-/J	8BB-/J	8dd\J	8g/J
8AA/L	8AA/L	8cc\L	4g/
(16BB-/L	(16BB-/L	16dd\L	.
16C/J)	16C/J)	16ee-\	.
8D/J	8D/J	16dd\	8f#/
.	.	16cc\JJ	.
=13	=13	=13	=13
4GG/	8GG\L	4b-\	8g/
.	16G\L	.	[4ee-\
.	16F\	.	.
8E-\	16G\	8r	.
.	16E-\JJ	.	.
4F\	8F\L	4a/	8ee-\]
.	16F\L	.	[4dd\
.	16E-\	.	.
8D\	16F\	8r	.
.	16D\JJ	.	.
=14	=14	=14	=14
4E-\	8E-\L	8g/	8dd\]
.	16C\L	4ee-\	4cc\
.	16D\	.	.
8C/	16E-\	.	.
.	16F\JJ	.	.
4G\	4G\	4dd\	8b\
.	.	.	[4gg\
8E-\	8E-\	8g/	.
=15	=15	=15	=15
4F\	4F\	4a/	8gg\]
.	.	.	[4ff\
8F\	8F\	8a/	.
8G\L	8G\L	8b\	8ff\]
8A-\	8A-\	[4cc\	4ee-\
8E-\J	8E-\J	.	.
=16	=16	=16	=16
8F\L	8F\L	8cc\]	8dd\
8G\	8G\	4b\	4dd\
8GG\J	8GG\J	.	.
4C/	4C/	4cc\	8cc\L
.	.	.	8cc\
8c\	8c\	8r	8ee-\J
=17	=17	=17	=17
4G\	4G\	4.r	8dd\L
.	.	.	16ee-\L
.	.	.	16ff\J
8G\	8G\	.	8gg\J
4A-\	4A-\	8r	8cc\
.	.	16ee-\LL	[4ccc\
.	.	16dd\	.
8C/	8C/	16ee-\	.
.	.	16cc\JJ	.
=18	=18	=18	=18
8G\	8G\	8dd\L	8ccc\]
4GG/	4GG/	16gg\L	4bb\
.	.	16ff\	.
.	.	16gg\	.
.	.	16dd\JJ	.
8C/	8C/	8ee-\	8ccc\L
4GG/	4GG/	[4gg\	16bb-\L
.	.	.	16aa\
.	.	.	16bb-\
.	.	.	16gg\JJ
=19	=19	=19	=19
8D\	8D\	8gg\]	8aa\L
4DD/	4DD/	4ff#\	16ddd\L
.	.	.	16ccc\
.	.	.	16ddd\
.	.	.	16aa\JJ
8GG/	8GG/	8gg\L	8bb-\
4DD/	8r	16ffn\L	[4ddd\
.	.	16ee\	.
.	8r	16ff\	.
.	.	16dd\JJ	.
=20	=20	=20	=20
4AA/	4.r	8ee\L	8ddd\]
.	.	16aa\L	4ccc#\
.	.	16gg\	.
8AA/	.	16aa\	.
.	.	16ee\JJ	.
4D\	4D\	8ff\L	4.ddd\
.	.	8a\	.
8F\	8F\	8dd\J	.
=21	=21	=21	=21
8E\L	8E\L	4dd\	4.r
16F\L	16F\L	.	.
16G\J	16G\J	.	.
8A\J	8A\J	8cc#\	.
8D\	8D\	4dd\	8r
[4d\	[4d\	.	16ff\LL
.	.	.	16ee\
.	.	8r	16ff\
.	.	.	16dd\JJ
=22	=22	=22	=22
8d\]	8d\]	4.r	8ee\L
[4c\	[4c\	.	16aa\L
.	.	.	16gg\
.	.	.	16aa\
.	.	.	16ee\JJ
8c\L]	8c\L]	8r	8ff#\
8B-\	8B-\	16b-/LL	[4gg\
.	.	16a/	.
8G\J	8G\J	16b-/	.
.	.	16g/JJ	.
=23	=23	=23	=23
8D\	8D\	8a\L	8gg\]
4DD/	4DD/	16dd\L	4ff#\
.	.	16cc\	.
.	.	16dd\	.
.	.	16a\JJ	.
4GG/	8GG\L	8b-\	4gg\
.	16G\L	[4ee-\	.
.	16F\	.	.
8E-\	16G\	.	8r
.	16E-\JJ	.	.
=24	=24	=24	=24
4F\	8F\L	8ee-\]	4a/
.	16F\L	[4dd\	.
.	16E-\	.	.
8D\	16F\	.	8r
.	16D\JJ	.	.
4E-\	8E-\L	8dd\]	4g/
.	16E-\L	[4cc\	.
.	16D\	.	.
8C/	16E-\	.	8r
.	16C\JJ	.	.
=25	=25	=25	=25
8D\	8D/L	8cc\]	8f#/
4GG/	16GG/L	4b-\	[4g/
.	16AA/	.	.
.	16BB-/	.	.
.	16GG/JJ	.	.
8C/L	8C/L	8a/	8g/]
8D/	8D/	4a/	4f#/
8DD/J	8DD/J	.	.
=26	=26	=26	=26
4GG/	4GG/	4g/	8g\L
.	.	.	8gg\
8GG/	8GG/	8r	8bb-\J
4D\	4D\	8r	8aa\L
.	.	8dd\L	16bb-\L
.	.	.	16ccc\J
8D\	8D\	8ff\J	8ddd\J
=27	=27	=27	=27
4C/	4C/	8ee\L	8gg\
.	.	16ff#\L	[4ccc\
.	.	16gg\J	.
8AA/	8AA/	8aa\J	.
4BB-/	4BB-/	8dd\	8ccc\L]
.	.	[4gg\	8bb-\
8C/	8C/	.	8aa\J
=28	=28	=28	=28
8D\	8D\	8gg\]	8bb-\
4DD/	4DD/	4ff#\	4aa\
4GG/	4GG/	4gg\	4gg\
!! Adagio.
*MM26	*MM26	*MM26	*MM26
[8G\	[8G\	[8dd\	[8b-\
=29	=29	=29	=29
8G\]	8G\]	8dd/L]	8b-\L]
4E-\	4E-\	8.gT/	8.ccT\
.	.	16f#/Jk	16dd\Jk
4D\	4D\	4f#/	4dd\
8r	8r	8r	8r
==	==	==	==
*-	*-	*-	*-
!!!CDT: 1653/2/17/-1713/1/8
!!!OCY: Italia
!!!ODE: Queen Christina Alexandra of Sweden
!!!ODT: 1681//
!!!OPC: Roma; Rome
!!!AGN: trio sonata
!!!AST: baroque, chamber
!!!AMT: compound duple
!!!YOR1: J. Joachim & F. Chrysander (eds.) Les Oeuvre de Arcangelo Corelli
!!!YOR2: London: Augener & Co. 1871
!!!YOY: 1871
!!!AIN: archl cello organ violn
!!!EEV: 1.1
!!!RDT: 1993 September 16
!!!YER: 1994 December 14
!!!EMD: 1996 July 9
!!!YEN: United States of America
!!!EFL: 3/5
!!!ENC: Frances Bennion & Steven Rasmussen
!!!EED: W.B. Hewlett
!!!VTS: 1669701534
